assets/icons/qvision/wifi.svg

<svg width="24" height="24" viewBox="0 0 24 24" fill="none" xmlns="http://www.w3.org/2000/svg">
<g clip-path="url(#clip0_147_6074)">
<path d="M1 9.00001L3 11C7.97 6.03001 16.03 6.03001 21 11L23 9.00001C16.93 2.93001 7.08 2.93001 1 9.00001ZM9 17L12 20L15 17C13.35 15.34 10.66 15.34 9 17ZM5 13L7 15C9.76 12.24 14.24 12.24 17 15L19 13C15.14 9.14001 8.87 9.14001 5 13Z" fill="#323232"/>
</g>
<defs>
<clipPath id="clip0_147_6074">
<rect width="24" height="24" fill="white"/>
</clipPath>
</defs>
</svg>

<svg xmlns="http://www.w3.org/2000/svg" height="24" viewBox="0 0 24 24" width="24"><path d="M0 0h24v24H0z" fill="none"/><path d="M1 9l2 2c4.97-4.97 13.03-4.97 18 0l2-2C16.93 2.93 7.08 2.93 1 9zm8 8l3 3 3-3c-1.65-1.66-4.34-1.66-6 0zm-4-4l2 2c2.76-2.76 7.24-2.76 10 0l2-2C15.14 9.14 8.87 9.14 5 13z"/></svg>
